!!! OTL: Berkowitz268
!!! Chapter: 1
!!! Section: II
!!! Page: 63
!!! Mode: 
!!! Encoder: DJB
**kern
*staff1
*I"Piano
=1-
*clefF4
*k[f#c#g#]
*A:
*M4/4
4r
4r
4r
8.E\L
16C#\Jk
=2
4AA/
4r
4r
4A\
=3
4B\
4A\
4r
8.E\L
16D\Jk
=4
4BB/
4r
4r
4B\
=5
4c#\
4B\
4r
8.E\L
16C#\Jk
=6
4A\
4r
4r
8.F#\L
16D\Jk
=7
4B\
4r
4r
8.G#\L
16E\Jk
=8
4d\
4r
4r
8c#\L
8B\J
=9
!!linebreak:original
8A\L
8G#\
8F#\
8E\J
8D#\L
8E\
8F#\
8G#\J
=10
4A\
4r
4r
4AA/
=11
4BB/
4AA/
4r
8.A\L
16c#\Jk
=12
4B\
4r
4r
4BB/
=13
4C#/
4BB/
4r
8.G#\L
16B\Jk
=14
4d\
4r
4r
8E\L
8F#\J
=15
8G#\L
8A\
8B\
8c#\J
8e\L
8d\
8B\
8c#\J
=16
!!linebreak:original
4A\
4r
4r
8.C#\L
16E\Jk
=17
4AA/
4r
2r
==
*-
